!!!!SEGMENT: pl-sa--l-1636--080_anonim--keyboard-piece.krn
!!!cenid: 17xx:787
!!!COM: Anonim
!!!COM-rismid: pe30004985
!!!CDT:
!!!CNT:
!!!OTL: [Keyboard piece]
!!!PDT:
!!!AGN: Secular
!!!SMS-siglum: PL-SA
!!!SMS-shelfmark: L 1636
!!!SMS-shelfwork: 080 W
!!!SMS-variant:
!!!SMS-altvar:
!!!NIFC-rismid: 1001077026
!!!URL-scan: http://repozytorium.nifc.pl/skany/pl-sa-nut--l1636
!!!ONB-nifc: 26v-27v, skan 0030 (s.4)-0031 (s.1)
!!!AIN: 1 empty
!!!key:
**kern	**kern
*part1	*part1
*staff2	*staff1
*Iempty	*Iempty
*I"[Keyboard]	*
*I'keyb	*
*clefF4	*clefG2
*k[]	*k[]
*D:	*D:
*M2/2	*M2/2
*met(c|)	*met(c|)
=1	=1
*	*2\right
1D 1AA 1DD	1a 1f#X 1d
=2-	=2-
1D 1AA 1DD	1a 1f#X 1d
=3	=3
*clefC4	*
1d 1A 1D	1dd 1a 1f
=4	=4
*^	*^
2d 2A/	1D	2dd/	8f#X\L
.	.	.	16g\L
.	.	.	16a\JJ
.	.	.	8.cc 8.g\L
.	.	.	16b 16f#\Jk
8d/L	.	2ryy	2g\
8c/J	.	.	.
8B-X/L	.	.	.
8A/J	.	.	.
=5	=5	=5	=5
8B-X/L	1D	8dd/L	2ryy
8A/J	.	8cc/J	.
8G/L	.	8b-X/L	.
8F/J	.	8a/J	.
2A 2F/	.	2a/	8f\L
.	.	.	8d\
.	.	.	8e\
.	.	.	8f\J
=6	=6	=6	=6
4B-X/	1D	2b-X/	2g\
8A/L	.	.	.
8G/J	.	.	.
4G/	.	4b-/	2ryy
8F/L	.	8a/L	.
8E/J	.	8g/J	.
*v	*v	*	*
*	*v	*v
=7	=7
1d 1A 1D	1dd 1a 1f
!!LO:PB:g=original
=8	=8
*2\right	*
!LO:CL:ed	!
*clefF4	*
*^	*
2A 2F#X/	[<2D\	16dd\LL
.	.	16a\
.	.	16b\
.	.	16cc\JJ
!	!	!LO:TX:a:t=P:problem=mixed beam
.	.	16dd\LL
.	.	16a/
.	.	16f#X/
.	.	16d/JJ
8B/L	2D\]	8dd\L
8A/	.	8cc\
8G/	.	8b\
8F#/J	.	8a\J
=9	=9	=9
*	*	*^
16G\LL	2ryy	2b 2g/	2d\
16D\	.	.	.
16E\	.	.	.
16F\JJ	.	.	.
16G\LL	.	.	.
16D\	.	.	.
16BB\	.	.	.
16GG\JJ	.	.	.
8G/L	2GG\	8b/L	2ryy
8F/	.	8a/	.
8E/	.	8g/	.
8D/J	.	8f/J	.
*	*	*v	*v
=10	=10	=10
2B 2G/	[<2E\	16ee\LL
.	.	16b\
.	.	16cc\
.	.	16dd\JJ
.	.	16ee\LL
.	.	16b\
.	.	16g\
.	.	16e\JJ
8c/L	2E\]	8ee\L
8B/	.	8dd\
8A/	.	8cc\
8G/J	.	8b\J
*v	*v	*
=11	=11
*	*^
16A\LL	2ee 2cc/	2a\
16E\	.	.
16F\	.	.
16G\JJ	.	.
16A\LL	.	.
16E\	.	.
16C\	.	.
16AA\JJ	.	.
8A\L	8cc\L	2ryy
8G\	8b\	.
8F\	8a\	.
8E\J	8g\J	.
!!LO:LB:g=original
=12	=12	=12
*clefC4	*	*
*^	*	*
8f/L	2F\	8aa/L	2cc\
8e/	.	8gg/	.
8d/	.	8ff/	.
8c/J	.	8ee/J	.
16f\LL	2ryy	2dd 2b/	2g\
16d\	.	.	.
16e\	.	.	.
16f\JJ	.	.	.
16g\LL	.	.	.
16d\	.	.	.
16B\	.	.	.
16G\JJ	.	.	.
*v	*v	*	*
=13	=13	=13
8g\L	2dd/	8b\L
8f\	.	8a\
8e\	.	8g\
8d\J	.	8f\J
16e\LL	2b/	2g\
16B\	.	.
16c\	.	.
16d\JJ	.	.
16e\LL	.	.
16B\	.	.
16G\	.	.
16E\JJ	.	.
=14	=14	=14
*^	*	*
8e\L	2ryy	2ee/	8cc\L
8d\	.	.	8b\
8c\	.	.	8a\
8B\J	.	.	8g\J
2e 2c/	2A\	16aa\LL	2ryy
.	.	16ee\	.
.	.	16ff\	.
.	.	16gg\JJ	.
.	.	16aa\LL	.
.	.	16ee\	.
.	.	16cc\	.
.	.	16a\JJ	.
*v	*v	*	*
=15	=15	=15
16d\LL	2dd 2a/	2f\
16A\	.	.
16B\	.	.
16c\JJ	.	.
16d\LL	.	.
16A\	.	.
16F\	.	.
16D\JJ	.	.
8d\L	2dd/	8b-X\L
8c\	.	8a\
!LO:TX:a:t=P:problem=♭ above	!	!
8B-X\	.	8g\
!	!	!LO:TX:a:t=P:problem=# above
8A\J	.	8f#X\J
*	*v	*v
=16	=16
*^	*
!	!LO:TX:a:t=P:problem=nuta nieczytelna - defekt źródła	!
2ryy	2 [<2G\	16gg\LL
.	.	16dd\
.	.	16ee\
.	.	16ff\JJ
.	.	16gg\LL
.	.	16dd\
.	.	16b\
.	.	16g\JJ
!!LO:LB:g=original
!	!	!LO:TX:a:t=P:problem=łamanie systemu w tym miejscu
8e/L	2G\]	8gg\L
8d/	.	8ff\
8c/	.	8ee\
8B/J	.	8dd\J
*v	*v	*
!!LO:LB:g=original
=17	=17
*	*^
16c\LL	2ee 2cc/	[<2g\
16G\	.	.
16A\	.	.
16B\JJ	.	.
16c\LL	.	.
16G\	.	.
16E\	.	.
16C\JJ	.	.
8c\L	8ee/L	2g\]
8B\	8dd/	.
8A\	8cc/	.
8G\J	8b/J	.
=18	=18	=18
16A/LL	2cc 2a/	2e\
16E/	.	.
16F/	.	.
16G/JJ	.	.
16A/LL	.	.
16E/	.	.
16C/	.	.
16AA/JJ	.	.
8A\L	8cc/L	2e\
8G\	8b/	.
8F\	8a/	.
8E\J	8g/J	.
*clefF4	*	*
=19	=19	=19
16D/LL	2cc 2a/	2f\
16AA/	.	.
16BB/	.	.
16C/JJ	.	.
16D/LL	.	.
16AA/	.	.
16FF/	.	.
16DD/JJ	.	.
8D/L	2dd/	8b\L
8C/	.	8a\
8BB/	.	8g\
8AA/J	.	8f\J
*	*v	*v
=20	=20
2G/ 2D/ 2BB/	16gg\LL
.	16dd\
.	16ee\
.	16ff\JJ
.	16gg\LL
.	16dd\
.	16b\
.	16g\JJ
!!LO:LB:g=original
!	!LO:TX:a:t=P:problem=łamanie systemu w tym miejscu
*clefC4	*
8e\L	8gg\L
8d\	8ff\
8c\	8ee\
8B\J	8dd\J
!!LO:LB:g=original
=21	=21
*^	*
2e 2B/	2G#X\	16ee\LL
.	.	16b\
.	.	16cc\
.	.	16dd\JJ
.	.	16ee\LL
.	.	16b\
.	.	16g\
.	.	16e\JJ
2e 2c#X/	2A\	16aa\LL
.	.	16ee\
.	.	16ff\
.	.	16gg\JJ
.	.	16aa\LL
.	.	16ee\
!	!	!LO:TX:a:t=P:problem=# above
.	.	16cc#X\
.	.	16a\JJ
=22	=22	=22
8f/L	1A	8aa\L
8e/	.	8gg\
8d/	.	8ff\
8c/J	.	8ee\J
8d/L	.	8ff\L
16c/L	.	16ee\L
16d/JJ	.	16ff\JJ
8c/L	.	8dd\L
16d/L	.	16ee\L
16e/JJ	.	16ff\JJ
=23	=23	=23
4e/	1A	16gg\LL
.	.	16aa\
.	.	16gg\
.	.	16ff\JJ
16c/LL	.	16ee\LL
16e/	.	16gg\
16d/	.	16ff\
16c/JJ	.	16ee\JJ
8d/L	.	8ff\L
16e/L	.	16gg\L
16f/JJ	.	16aa\JJ
8e/L	.	8cc#X\L
16f/L	.	16dd\L
16g/JJ	.	16ee\JJ
=24	=24	=24
16g/LL	2A\	16ee\LL
16f/	.	16dd\
16g/	.	16ee\
16f/JJ	.	16cc\JJ
16e/LL	.	16gg\LL
16d/	.	16ff\
16e/	.	16gg\
16d/JJ	.	16ee\JJ
!!LO:PB:g=original
!	!	!LO:TX:a:t=P:problem=łamanie systemu w tym miejscu
16d/LL	2A\	16ff\LL
16e/	.	16gg\
16f/	.	16aa\
16e/JJ	.	16gg\JJ
16d/LL	.	16ff\LL
16c#X/	.	16ee\
16d/	.	16ff\
16B/JJ	.	16dd\JJ
!!LO:PB:g=original
=25	=25	=25
16c#X/LL	1A	16ee\LL
16e/	.	16gg\
16d/	.	16ff\
16c#/JJ	.	16ee\JJ
16f/LL	.	16dd\LL
16a/	.	16ff\
16g/	.	16ee\
16f/JJ	.	16dd\JJ
16e/LL	.	16cc#X\LL
16g/	.	16ee\
16f/	.	16dd\
!	!	!LO:TX:a:t=P:problem=# above
16e/JJ	.	16cc#X\JJ
16d/LL	.	16b\LL
16f/	.	16dd\
!	!	!LO:TX:a:t=P:problem=# above
16e/	.	16cc#X\
16d/JJ	.	16b\JJ
=26	=26	=26
!	!	!LO:TX:a:t=P:problem=# above
8e/L	1A	8cc#X\L
16B/L	.	16dd\L
!LO:TX:a:t=P:problem=# below	!	!
16c#X/JJ	.	16ee\JJ
8d/L	.	8ff\L
16e/L	.	16gg\L
16f/JJ	.	16aa\JJ
4c#X/	.	4ee\
4d/	.	4ff\
=27	=27	=27
!LO:TX:a:t=P:problem=# below	!	!
4c#X/	1A	4ee\
4d/	.	4ff\
16c#/LL	.	16ee\LL
16d/	.	16ff\
16c#/	.	16ee\
16d/JJ	.	16ff\JJ
16c#/LL	.	16ee\LL
16d/	.	16ff\
16e/	.	16gg\
16d/JJ	.	16ff\JJ
=28	=28	=28
*	*	*^
*	*	*	*^
4c#X/	1A	8ee\L	4ryy	2ryy
.	.	16dd\L	.	.
.	.	16ee\JJ	.	.
16d/LL	.	4ff/	4dd\	.
16e/	.	.	.	.
16f/	.	.	.	.
16g/JJ	.	.	.	.
4a/	.	2ee/	8dd\L	4ryy
.	.	.	16cc\L	.
.	.	.	16b\JJ	.
4e 4c#X/	.	.	8a\L	4cc#X/
.	.	.	8g\J	.
*v	*v	*	*	*
*	*v	*v	*v
=29	=29
1d 1A 1F#X 1D	1dd 1a 1f#X
!LO:TX:a:t=P:||:problem=w źródle końcowa kreska taktowa 	!LO:TX:a:t=P:||:problem=w źródle końcowa kreska taktowa 
==;	==;
*-	*-
!!!system-decoration: s1,s2
!!!RDF**kern: > = above
!!!RDF**kern: < = below
!!!EED: Antoni Szymański
!!!EST: 2020-12-08
!!!ENC: Tomasz Grochalski
!!!END: 2020-06-12
